X: 1
T: Walking The Floor
M: 6/8
L: 1/8
R: jig
K: Ador
|: "A(m)"AGA e2d | efg "D7"edB | "G"GFG d2B | Gge      dBG |
|  "A(m)"AGA e2d | efg "D7"edB | "G"GFG edB | BAG "A(m)"A3 :|
|: "A(m)"aga e2d | gee "D7"edB | "G"gfg d2B | Gge      dBG |
|  "A(m)"aga e2d | gee "D7"edB | "G"GFG edB | BAG "A(m)"A3 :|
